X:1
T:Title
%%score { 1 | 2 }
L:1/8
M:3/4
K:F
V:1 treble nm="Grand Piano"
V:2 bass 
V:1
 z2 z2 z[Q:1/4=94] C | FF F3 G | AA [FA] [EG]2 C | [EG][EG] [EG]3 [FA] | [GB][GB] [GB] A2 F | %5
 Ac c3 c | dc c A2 F | [FA] [FA]2 [A,F] [B,EG]<[B,EG] |[M:2/4] [A,CF]4 |[M:1/4] [CAc]2 | %10
[M:3/4] [FAc]2 [Af]3 [Ac] | [Fce] [FBd]3 z2 | [EG]2 [Ec]3 [EG] | [GB] [FA]3 [Ac]2 | %14
 [Ac]2 [Af]3 [Ac] | [Fce] [FBd]3 [DGB]2 | [CFA] [Fc]2 [Fc] [EB]<[EG] |[M:5/8] [CF]- [CF]3 z |] %18
V:2
 z2 z2 z [F,A,] | [F,A,B,][F,A,C] [F,A,C]3 [F,B,C] | [F,CF][F,CF] [C,C] [C,B,]2 [C,E,] | %3
 [C,C][C,C] [C,C]3 [C,C] | [C,C][C,C] [F,C] [F,CF]2 [F,A,] | [F,CF][F,A,F] [F,A,F]3 [F,A,F] | %6
 [F,B,F][F,A,F] [F,A,F] [F,CF]2 [D,=B,] | [C,C] [C,C]2 C, C,<C, |[M:2/4] F,4 |[M:1/4] F,2 | %10
[M:3/4] F,2 [F,C]3 [F,F] | [B,,B,] [B,,B,]3 z2 | [C,C]2 [C,G,]3 [C,C] | [F,C] [F,C]3 [F,C]2 | %14
 [F,F]2 [F,C]3 [F,F] | [B,,B,] [B,,B,]3 B,,2 | C, [C,A,]2 [C,A,] [C,G,]<[C,B,] | %17
[M:5/8] [F,A,]- [F,A,]3 z |] %18

